X:175
T:Whistling Postman, The
R:jig
C:Charlie Mulvihill (1917-1975)
D:Sean Ryan: Siuil Uait
Z:id:hn-jig-175
M:6/8
K:D
~f3 edB|~A3 BAF|DFA dfa|baf ede|~f3 edB|~A3 BAF|DFA ~B3|cBc d2e:|
~f3 afd|gBd gBd|~f3 afa|baf ede|faf edB|~A3 BAF|DFA ~B3|cBc d2e:|

